X:1654
R:Visa
B:August Bondesons Visbok nr 206
Z:[[Profiles/Tommy Rådberg]]
T:Elin och herremannen
A:Pehr Thomasson
M:3/4
L:1/16
K:G
D2|G3BG6B2|d3dd6c2|B3BA6A2|B8z2D2|G3BG6B2|d3dd6c2|B3BA6A2|B8z2B2|c2e2c6c2|e2g2B6G2|A2c2F6A2|c2B2G4z2|]
(:musicend:)

(:music:)
